iMoney3.0/img/home/icon-flame.svg

<?xml version="1.0" encoding="UTF-8" standalone="no"?>
<svg width="36px" height="41px" viewBox="0 0 36 41" version="1.1" xmlns="http://www.w3.org/2000/svg" xmlns:xlink="http://www.w3.org/1999/xlink" xmlns:sketch="http://www.bohemiancoding.com/sketch/ns">
    <!-- Generator: Sketch 3.2.2 (9983) - http://www.bohemiancoding.com/sketch -->
    <title>icon-flame</title>
    <desc>Created with Sketch.</desc>
    <defs></defs>
    <g id="Page-1" stroke="none" stroke-width="1" fill="none" fill-rule="evenodd" sketch:type="MSPage">
        <g id="Homepage" sketch:type="MSArtboardGroup" transform="translate(-506.000000, -686.000000)">
            <g id="icon-flame" sketch:type="MSLayerGroup" transform="translate(506.000000, 686.000000)">
                <g id="Group" transform="translate(0.577841, 0.000000)" fill="#EF4400" sketch:type="MSShapeGroup">
                    <ellipse id="Oval-2" cx="15.7256551" cy="25.128877" rx="15.7256551" ry="15.6857429"></ellipse>
                    <path d="M8.74870194,11.0856194 L20.9807914,4.25650701 L18.5615711,12.3523818 L8.74870194,11.0856194 Z" id="Path-31"></path>
                    <path d="M16.6960742,11.2558047 L34.9702081,0.683207467 L29.1747163,23.2804946 L16.6960742,11.2558047 Z" id="Path-31"></path>
                    <path d="M30.8737246,29.3746551 L29.0922,19.3049119 L34.8226098,14.7319401 L30.8737246,29.3746551 Z" id="Path-31"></path>
                </g>
                <g id="Group-3" transform="translate(4.721259, 8.372230)" fill="#DE2C00" sketch:type="MSShapeGroup">
                    <ellipse id="Oval-2" cx="11.10132" cy="17.2165633" rx="11.10132" ry="10.9592098"></ellipse>
                    <path d="M6.1760314,7.40491416 L14.8111145,2.6335957 L13.1032977,8.28996727 L6.1760314,7.40491416 Z" id="Path-31"></path>
                    <path d="M11.7863746,7.52381811 L24.6867598,0.137026709 L20.5955084,15.9251479 L11.7863746,7.52381811 Z" id="Path-31"></path>
                    <path d="M21.794901,20.1829752 L20.5372571,13.1475144 L24.5825647,9.95250112 L21.794901,20.1829752 Z" id="Path-31"></path>
                </g>
            </g>
        </g>
    </g>
</svg>

<svg width="36" height="41" viewBox="0 0 36 41" xmlns="http://www.w3.org/2000/svg"><title>icon-flame</title><desc>Created with Sketch.</desc><g fill="none"><g transform="translate(.578 0)" fill="#EF4400"><ellipse id="Oval-2" cx="15.726" cy="25.129" rx="15.726" ry="15.686"/><path d="M8.75 11.086l12.23-6.83-2.418 8.096-9.813-1.266zM16.696 11.256L34.97.683 29.175 23.28l-12.48-12.024zM30.874 29.375l-1.782-10.07 5.73-4.573-3.948 14.643z" id="Path-31"/></g><g transform="translate(4.721 8.372)" fill="#DE2C00"><ellipse cx="11.101" cy="17.217" rx="11.101" ry="10.959"/><path d="M6.176 7.405l8.635-4.77-1.707 5.655-6.927-.885zM11.786 7.524l12.9-7.387-4.09 15.788-8.81-8.4zM21.795 20.183l-1.258-7.035 4.046-3.195-2.788 10.23z"/></g></g></svg>
